static/images/logos/logo.svg

<?xml version="1.0" encoding="UTF-8"?>
<svg viewBox="0 80 400 120" xmlns="http://www.w3.org/2000/svg">
  <g id="layer1">
    <text
       transform="matrix(0.43270618,0,0,0.43270618,-138.21828,12.008364)"
       style="font-style:normal;font-weight:normal;font-size:192px;font-family:Aladin, Kurale, serif;fill:#ffa16c">
       <tspan x="537.96094" y="351.85761">ravindh</tspan>
    </text>
    <g transform="matrix(7.0728057,0,0,7.0728057,4.877048,75.388357)">
      <path
         fill="#455a64"
         d="M 11.922283,8.9987092 H 2.0715646 c -0.1664347,0 -0.3014898,-0.1372086 -0.3014898,-0.3076426 0,-0.1698188 0.1350551,-0.3076427 0.3014898,-0.3076427 h 9.8507184 c 0.16705,0 0.301797,0.1378239 0.301797,0.3076427 0,0.170434 -0.134747,0.3076426 -0.301797,0.3076426 z m -1.722995,2.8775618 0.560525,-0.253497 0.506995,1.12105 -0.560525,0.253497 z M 6.3847147,1.0000001 H 7.6152853 V 3.1534987 H 6.3847147 Z M 3.2926763,13 2.7321514,12.746503 3.2391465,11.625453 3.7996714,11.87895 Z" />
      <g fill="#e91e63" transform="matrix(0.30764,0,0,0.30764,-0.38342384,-0.23057058)">
        <circle cx="40" cy="29" r="2" />
        <circle cx="8" cy="29" r="2" />
      </g>
      <path
         fill="#ffa16c"
         d="M 8.499758,5.225472 C 8.217342,5.5269618 7.8352498,5.7330824 7.405473,5.7918421 l 2.837388,6.1777719 0.561448,-0.255651 0.07783,-1.324709 z m -2.9964395,0 C 5.7857344,5.5269618 6.1678266,5.7330824 6.5976034,5.7918421 L 3.7602152,11.969614 3.1987673,11.713963 3.1209337,10.389254 Z" />
      <path
         fill="#ffa16c"
         d="m 7,2.5382134 c -1.0192201,0 -1.845856,0.8266358 -1.845856,1.8458559 0,1.0192202 0.8266359,1.845856 1.845856,1.845856 1.0192201,0 1.845856,-0.8266359 1.845856,-1.845856 C 8.845856,3.3648492 8.0192201,2.5382134 7,2.5382134 Z m 0,2.7687839 c -0.5094562,0 -0.922928,-0.4134717 -0.922928,-0.922928 0,-0.5094562 0.4134718,-0.922928 0.922928,-0.922928 0.5094562,0 0.922928,0.4134718 0.922928,0.922928 0,0.5094563 -0.4134718,0.922928 -0.922928,0.922928 z M 6.3847147,7.7681386 H 7.6152853 V 9.6139945 H 6.3847147 Z" />
    </g>
  </g>
</svg>

<?xml version="1.0" encoding="UTF-8"?>
<svg viewBox="0 0 320 100" version="1.1" xmlns="http://www.w3.org/2000/svg">
  <g transform="translate(-10, -55)">
    <!-- The Icon part -->
    <g transform="matrix(5.5, 0, 0, 5.5, 5, 70)">
      <path fill="#455a64" d="M 11.9,9 H 2.1 C 1.9,9 1.8,8.9 1.8,8.7 1.8,8.5 1.9,8.4 2.1,8.4 h 9.8 c 0.2,0 0.3,0.1 0.3,0.3 0,0.2 -0.1,0.3 -0.3,0.3 z m -1.7,2.9 0.6,-0.3 0.5,1.1 -0.6,0.3 z M 6.4,1 H 7.6 V 3.2 H 6.4 Z M 3.3,13 2.7,12.7 3.2,11.6 3.8,11.9 Z" />
      <g fill="#e91e63" transform="matrix(0.3, 0, 0, 0.3, -0.4, -0.2)">
        <circle cx="40" cy="29" r="2" />
        <circle cx="8" cy="29" r="2" />
      </g>
      <path fill="#ffa16c" d="M 8.5,5.2 C 8.2,5.5 7.8,5.7 7.4,5.8 L 10.2,12 10.8,11.7 10.9,10.4 Z m -3,0 C 5.8,5.2 6.2,5.5 6.6,5.8 L 3.8,12 3.2,11.7 3.1,10.4 Z" />
      <path fill="#ffa16c" d="M 7,2.5 C 6,2.5 5.2,3.3 5.2,4.4 5.2,5.4 6,6.2 7,6.2 8,6.2 8.8,5.4 8.8,4.4 8.8,3.3 8,2.5 7,2.5 Z m 0,2.8 C 6.5,5.3 6.1,4.9 6.1,4.4 6.1,3.9 6.5,3.5 7,3.5 7.5,3.5 7.9,3.9 7.9,4.4 7.9,4.9 7.5,5.3 7,5.3 Z M 6.4,7.8 H 7.6 V 9.6 H 6.4 Z" />
    </g>
    <!-- The Text part (ravindh) -->
    <!-- Simplified text positioning -->
    <text x="85" y="125" style="font-family: serif; font-size: 60px; fill: #ffa16c; font-weight: bold;">ravindh</text>
  </g>
</svg>
